.icons/Gruvbox-Plus-Dark/apps/16/latex.svg

<svg width="16" height="16" version="1.1" xmlns="http://www.w3.org/2000/svg">
  <defs>
    <style type="text/css" id="current-color-scheme">.ColorScheme-Text { color:#ebdbb2; } .ColorScheme-Highlight { color:#458588; }</style>
  </defs>
  <path class="ColorScheme-Text" fill="currentColor" d="m0 9.425 0.042-0.388c0.1564 0.02368 0.2589-0.1161 0.377-0.169 0.068-0.084 0.102-0.227 0.102-0.429v-2.837c0.02473-0.1057-0.03323-0.2048-0.049-0.302-0.03333-0.052-0.1017-0.078-0.205-0.078-0.04667 0-0.09233 0.00233-0.137 7e-3 -0.04467 0.004667-0.074 7e-3 -0.088 7e-3l-0.028-0.042 0.049-0.352 0.197 7e-3 0.662 7e-3c0.1357 0 0.3091-0.00934 0.496-0.024 0.2047-0.01667 0.3397-0.02733 0.405-0.032l-0.035 0.394c0 0.00194-0.2241 0.0192-0.334 0.084-0.06333 0.038-0.1047 0.08967-0.124 0.155-0.01867 0.066-0.03267 0.1833-0.042 0.352-0.056 0.8307-0.084 1.718-0.084 2.661 0 0.15 0.01267 0.258 0.038 0.324 0.026 0.06533 0.07533 0.11 0.148 0.134 0.07267 0.02333 0.189 0.035 0.349 0.035 0.258 0 0.4503-0.02467 0.577-0.074 0.1267-0.04933 0.2217-0.1443 0.285-0.285s0.1183-0.366 0.165-0.676l0.43-0.042 0.035 0.049c-0.03129 0.1817-0.05867 0.364-0.088 0.546-0.04467 0.284-0.081 0.5853-0.109 0.904l-0.049 0.057c-0.1313-0.01-0.4097-0.023-0.835-0.039-0.4247-0.01667-0.7893-0.025-1.094-0.025-0.2393 0-0.461 0.00933-0.665 0.028-0.2047 0.01867-0.335 0.033-0.391 0.043zm3.083-2.998h0.351c0.1234 0.00402 0.2461-0.012 0.369-0.018l-0.303-1.071h-0.044zm2.415 2.984 0.056-0.373c0.2253-0.01867 0.3837-0.048 0.475-0.088s0.1523-0.1103 0.183-0.211 0.046-0.2707 0.046-0.51v-2.957c-0.2378-0.01742-0.4708 0.04481-0.704 0.067-0.1267 0.03533-0.2147 0.108-0.264 0.218-0.04933 0.1107-0.09267 0.316-0.13 0.616l-0.444 0.036c0.05737-0.4488 0.07248-0.9009 0.099-1.352l0.07-0.063 0.634 0.077h2.189l0.647-0.077 0.071 0.063c0.00862 0.4401 0.05423 0.8778 0.091 1.316l-0.443 0.036c-0.04667-0.3147-0.09367-0.5283-0.141-0.641-0.04667-0.1127-0.1287-0.1867-0.246-0.222s-0.3357-0.06-0.655-0.074c-0.01699 0.2223-0.098 1.66-0.098 3.245 0 0.174 0.03033 0.2973 0.091 0.37 0.06133 0.07267 0.1623 0.109 0.303 0.109 0.1267 0 0.2533-7e-3 0.38-0.021 0.00933 0.01167 0.01867 0.02333 0.028 0.035l-0.063 0.394c0.00134 0.00134-0.589-0.028-1.12-0.028-0.328 0-0.6797 0.01167-1.055 0.035zm6.173 0.43 0.035 0.049c0.0039 0.00395-0.1138 0.4274-0.197 1.239-0.01633 0.01867-0.03267 0.03733-0.049 0.056 4.94e-4 4.94e-4 -1.319-0.049-2.154-0.049-0.3707 0-0.732 0.02333-1.084 0.07l0.042-0.387c0.01982 0.01982 0.422-0.1049 0.422-0.169 0.1233-0.1115 0.07653-0.2905 0.113-0.429 0.02128-1.045 0.01151-2.108-0.042-3.14-0.03333-0.05133-0.099-0.077-0.197-0.077l-0.233 0.014-0.028-0.042 0.056-0.359c0.3709 0.01257 0.742 0.0148 1.113 0.021 0.544 0 0.979-6e-3 1.305-0.018 0.3267-0.01133 0.6-0.03367 0.82-0.067l0.036 0.057c-0.04839 0.1967-0.06802 0.3988-0.102 0.598-0.03531 0.2051-0.04001 0.4135-0.06 0.62l-0.472 0.035 0.014-0.296c0.02855-0.1143-0.04278-0.2173-0.063-0.32-0.042-0.06333-0.1277-0.1057-0.257-0.127s-0.3533-0.032-0.672-0.032c-0.1453 0-0.2463 5e-3 -0.303 0.015-0.056 0.00933-0.09233 0.03133-0.109 0.066-0.02845 0.05586-0.02142 0.1205-0.032 0.18l-0.056 1.246c0.2323 0.00233 0.4647 0.00467 0.697 7e-3 0.1033 0 0.2333-7e-3 0.39-0.021 0.1573-0.014 0.309-0.03067 0.455-0.05 0.01167 0.01667 0.02333 0.03333 0.035 0.05l-0.099 0.5c7.12e-4 7.12e-4 -0.6907-0.022-0.95-0.022-0.1819-0.004673-0.3615 0.02868-0.542 0.043l-0.021 1.196c0 0.1119 0.00768 0.2181 0.031 0.282 0.02133 0.056 0.065 0.09333 0.131 0.112 0.06533 0.01933 0.1803 0.029 0.345 0.029 0.3513 0 0.6047-0.019 0.76-0.057 0.1547-0.03733 0.265-0.111 0.331-0.221 0.06533-0.1107 0.1167-0.2973 0.154-0.56zm-8.013-2.15-0.018-0.031 0.018-0.215c0.1016 0.00449 0.1983-0.03216 0.296-0.048 0.04867-0.02067 0.073-0.05867 0.073-0.114 0-0.05267-0.01033-0.1143-0.031-0.185l-0.123-0.412c-0.1433-0.00614-0.2867-0.00333-0.43-5e-3 3.711e-4 0.00148-0.1731-0.00549-0.452 0.031l-0.141 0.404c0 0.00158-0.035 0.1083-0.035 0.153 0 0.05867 0.01833 0.1007 0.055 0.126 0.03667 0.02467 0.09733 0.037 0.182 0.037h0.224l0.013 0.022c-0.00867 0.07467-0.01733 0.1493-0.026 0.224-0.038-0.00333-0.1213-0.00867-0.25-0.016-0.1293-0.007333-0.254-0.011-0.374-0.011-0.114 0-0.2183 0.00167-0.313 5e-3 -0.09533 0.00267-0.159 0.00533-0.191 8e-3l0.035-0.241c0.07524 0.00577 0.1248-0.05835 0.184-0.086 0.04667-0.04533 0.09067-0.1233 0.132-0.234l0.825-2.235 0.457-0.074 0.043 0.013c0.04664 0.1664 0.09133 0.3333 0.137 0.5 0.07 0.2607 0.1547 0.563 0.254 0.907 0.09933 0.3433 0.1917 0.6453 0.277 0.906 0.032 0.1087 0.075 0.184 0.129 0.226 0.0697 0.06726 0.173 0.05454 0.257 0.081l0.013 0.022-0.031 0.215c-0.03467-0.002667-0.101-0.005333-0.199-8e-3 -0.098-0.003333-0.197-5e-3 -0.297-5e-3 -0.1487 0-0.292 0.00533-0.43 0.016-0.1373 0.01-0.225 0.018-0.263 0.024zm10.24 1.734-0.028-0.049 0.035-0.338c0.1246 0.01197 0.2409-0.04228 0.359-0.063 0.07533-0.03267 0.113-0.08667 0.113-0.162 0.0065-0.1111-0.08556-0.19-0.127-0.282l-0.697-1.048-0.57 0.774c-0.122 0.1687-0.204 0.2893-0.246 0.362-0.04267 0.07333-0.064 0.138-0.064 0.194 0 0.066 0.03067 0.1153 0.092 0.148 0.06067 0.03267 0.157 0.05367 0.289 0.063l0.021 0.042-0.043 0.352c-0.1289-0.00911-0.258-0.016-0.387-0.024 5.47e-4 5.468e-4 -0.2605-0.018-0.45-0.018-0.1547 0-0.305 0.00367-0.451 0.011-0.1453 0.00667-0.2437 0.01233-0.295 0.017-0.06135-0.1208 0.01415-0.2703 0.021-0.401 0.1687-0.056 0.3377-0.1627 0.507-0.32 0.1687-0.1573 0.361-0.372 0.577-0.644l0.746-0.944-0.852-1.267c-0.08421-0.1821-0.2722-0.2715-0.405-0.404-0.1473-0.092-0.3267-0.1543-0.538-0.187-0.0047-0.00933-0.0093-0.01867-0.014-0.028l0.042-0.352c0 1.5e-4 0.0807 0.00642 0.415 0.014 0.2067 0.00467 0.4227 7e-3 0.648 7e-3 0.2113 0 0.4177-0.00833 0.619-0.025 0.202-0.016 0.3313-0.02633 0.388-0.031l0.021 0.056-0.021 0.317c-0.174 0.00933-0.2997 0.03267-0.377 0.07-0.07733 0.038-0.116 0.092-0.116 0.162 0 0.05667 0.05733 0.18 0.172 0.37 0.1153 0.19 0.2973 0.475 0.546 0.855l0.246-0.338c0.1833-0.244 0.3253-0.4423 0.426-0.595 0.1007-0.152 0.151-0.2587 0.151-0.32 0-0.06067-0.02933-0.1063-0.088-0.137-0.058-0.03067-0.1553-0.05067-0.292-0.06-0.0047-0.00933-0.0093-0.01867-0.014-0.028l0.043-0.338c0.06567 0.00467 0.1313 0.00933 0.197 0.014 0.07 0.00467 0.1743 0.01067 0.313 0.018 0.1387 0.00667 0.2477 0.01 0.327 0.01 0.1267 0 0.2687-0.00333 0.426-0.01 0.1573-0.00733 0.2593-0.01333 0.306-0.018 0.0093 0.01633 0.01867 0.03267 0.028 0.049l-0.042 0.338c0.01034 0.00258-0.2779 0.05117-0.486 0.225-0.1173 0.09867-0.2697 0.27-0.457 0.514l-0.817 1.063 0.944 1.366c0.1313 0.192 0.2697 0.334 0.415 0.426 0.1453 0.09133 0.3237 0.1463 0.535 0.165 0.0047 0.00933 0.0093 0.01867 0.014 0.028l-0.049 0.373c-0.1195-0.00842-0.2393-0.00933-0.359-0.014-0.174-0.004667-0.3523-7e-3 -0.535-7e-3 -0.16 0-0.3723 7e-3 -0.637 0.021-0.2653 0.014-0.4403 0.02333-0.525 0.028z"/>
</svg>

<svg xmlns="http://www.w3.org/2000/svg" style="isolation:isolate" width="16" height="16" viewBox="0 0 16 16">
 <defs>
  <style id="current-color-scheme" type="text/css">
   .ColorScheme-Text { color:#ebdbb2; } .ColorScheme-Highlight { color:#458588; }
  </style>
  <linearGradient id="arrongin" x1="0%" x2="0%" y1="0%" y2="100%">
   <stop offset="0%" style="stop-color:#d79921; stop-opacity:1"/>
   <stop offset="100%" style="stop-color:#b57614; stop-opacity:1"/>
  </linearGradient>
  <linearGradient id="aurora" x1="0%" x2="0%" y1="0%" y2="100%">
   <stop offset="0%" style="stop-color:#83a598; stop-opacity:1"/>
   <stop offset="100%" style="stop-color:#b16286; stop-opacity:1"/>
  </linearGradient>
  <linearGradient id="fitdance" x1="0%" x2="0%" y1="0%" y2="100%">
   <stop offset="0%" style="stop-color:#8ec07c; stop-opacity:1"/>
   <stop offset="100%" style="stop-color:#458588; stop-opacity:1"/>
  </linearGradient>
  <linearGradient id="oomox" x1="0%" x2="0%" y1="0%" y2="100%">
   <stop offset="0%" style="stop-color:#458588; stop-opacity:1"/>
   <stop offset="100%" style="stop-color:#928374; stop-opacity:1"/>
  </linearGradient>
  <linearGradient id="rainblue" x1="0%" x2="0%" y1="0%" y2="100%">
   <stop offset="0%" style="stop-color:#b8bb26; stop-opacity:1"/>
   <stop offset="100%" style="stop-color:#076678; stop-opacity:1"/>
  </linearGradient>
  <linearGradient id="sunrise" x1="0%" x2="0%" y1="0%" y2="100%">
   <stop offset="0%" style="stop-color: #fe8019; stop-opacity:1"/>
   <stop offset="100%" style="stop-color: #fabd2f; stop-opacity:1"/>
  </linearGradient>
  <linearGradient id="telinkrin" x1="0%" x2="0%" y1="0%" y2="100%">
   <stop offset="0%" style="stop-color: #83a598; stop-opacity:1"/>
   <stop offset="100%" style="stop-color: #83a598; stop-opacity:1"/>
  </linearGradient>
  <linearGradient id="60spsycho" x1="0%" x2="0%" y1="0%" y2="100%">
   <stop offset="0%" style="stop-color: #fb4934; stop-opacity:1"/>
   <stop offset="25%" style="stop-color: #fabd2f; stop-opacity:1"/>
   <stop offset="50%" style="stop-color: #fe8019; stop-opacity:1"/>
   <stop offset="100%" style="stop-color: #689d6a; stop-opacity:1"/>
  </linearGradient>
  <linearGradient id="90ssummer" x1="0%" x2="0%" y1="0%" y2="100%">
   <stop offset="0%" style="stop-color: #b16286; stop-opacity:1"/>
   <stop offset="20%" style="stop-color: #8ec07c; stop-opacity:1"/>
   <stop offset="50%" style="stop-color: #fabd2f; stop-opacity:1"/>
   <stop offset="100%" style="stop-color: #458588; stop-opacity:1"/>
  </linearGradient>
  <linearGradient id="cyberneon" x1="0%" x2="0%" y1="0%" y2="100%">
    <stop offset="0" style="stop-color:#83a598; stop-opacity:1"/>
    <stop offset="1" style="stop-color:#b16286; stop-opacity:1"/>
  </linearGradient>
 </defs>
 <path style="fill:currentColor" class="ColorScheme-Text" fill-rule="evenodd" d="M 0 9.425 L 0.042 9.037 L 0.042 9.037 Q 0.317 8.995 0.419 8.868 L 0.419 8.868 L 0.419 8.868 Q 0.521 8.742 0.521 8.439 L 0.521 8.439 L 0.521 5.602 L 0.521 5.602 Q 0.521 5.377 0.472 5.3 L 0.472 5.3 L 0.472 5.3 Q 0.422 5.222 0.267 5.222 L 0.267 5.222 L 0.267 5.222 Q 0.197 5.222 0.13 5.229 L 0.13 5.229 L 0.13 5.229 Q 0.063 5.236 0.042 5.236 L 0.042 5.236 L 0.014 5.194 L 0.063 4.842 L 0.26 4.849 L 0.922 4.856 L 0.922 4.856 Q 1.112 4.856 1.418 4.832 L 1.418 4.832 L 1.418 4.832 Q 1.725 4.807 1.823 4.8 L 1.823 4.8 L 1.788 5.194 L 1.788 5.194 Q 1.549 5.222 1.454 5.278 L 1.454 5.278 L 1.454 5.278 Q 1.359 5.335 1.33 5.433 L 1.33 5.433 L 1.33 5.433 Q 1.302 5.532 1.288 5.785 L 1.288 5.785 L 1.288 5.785 Q 1.204 7.031 1.204 8.446 L 1.204 8.446 L 1.204 8.446 Q 1.204 8.671 1.242 8.77 L 1.242 8.77 L 1.242 8.77 Q 1.281 8.868 1.39 8.904 L 1.39 8.904 L 1.39 8.904 Q 1.499 8.939 1.739 8.939 L 1.739 8.939 L 1.739 8.939 Q 2.126 8.939 2.316 8.865 L 2.316 8.865 L 2.316 8.865 Q 2.506 8.791 2.601 8.58 L 2.601 8.58 L 2.601 8.58 Q 2.696 8.369 2.766 7.904 L 2.766 7.904 L 3.196 7.862 L 3.231 7.911 L 3.231 7.911 Q 3.21 8.031 3.143 8.457 L 3.143 8.457 L 3.143 8.457 Q 3.076 8.883 3.034 9.361 L 3.034 9.361 L 2.985 9.418 L 2.985 9.418 Q 2.788 9.403 2.15 9.379 L 2.15 9.379 L 2.15 9.379 Q 1.513 9.354 1.056 9.354 L 1.056 9.354 L 1.056 9.354 Q 0.697 9.354 0.391 9.382 L 0.391 9.382 L 0.391 9.382 Q 0.084 9.41 0 9.425 L 0 9.425 L 0 9.425 L 0 9.425 L 0 9.425 Z M 3.083 6.427 L 3.434 6.427 L 3.434 6.427 Q 3.61 6.427 3.803 6.409 L 3.803 6.409 L 3.5 5.338 L 3.456 5.338 L 3.083 6.427 L 3.083 6.427 L 3.083 6.427 L 3.083 6.427 L 3.083 6.427 Z M 5.498 9.411 L 5.554 9.038 L 5.554 9.038 Q 5.892 9.01 6.029 8.95 L 6.029 8.95 L 6.029 8.95 Q 6.166 8.89 6.212 8.739 L 6.212 8.739 L 6.212 8.739 Q 6.258 8.588 6.258 8.229 L 6.258 8.229 L 6.258 5.272 L 6.258 5.272 Q 5.744 5.286 5.554 5.339 L 5.554 5.339 L 5.554 5.339 Q 5.364 5.392 5.29 5.557 L 5.29 5.557 L 5.29 5.557 Q 5.216 5.723 5.16 6.173 L 5.16 6.173 L 4.716 6.209 L 4.716 6.209 Q 4.787 5.582 4.815 4.857 L 4.815 4.857 L 4.885 4.794 L 5.519 4.871 L 7.708 4.871 L 8.355 4.794 L 8.426 4.857 L 8.426 4.857 Q 8.454 5.596 8.517 6.173 L 8.517 6.173 L 8.074 6.209 L 8.074 6.209 Q 8.004 5.737 7.933 5.568 L 7.933 5.568 L 7.933 5.568 Q 7.863 5.399 7.687 5.346 L 7.687 5.346 L 7.687 5.346 Q 7.511 5.293 7.032 5.272 L 7.032 5.272 L 7.032 5.272 Q 6.997 5.73 6.965 6.722 L 6.965 6.722 L 6.965 6.722 Q 6.934 7.715 6.934 8.517 L 6.934 8.517 L 6.934 8.517 Q 6.934 8.778 7.025 8.887 L 7.025 8.887 L 7.025 8.887 Q 7.117 8.996 7.328 8.996 L 7.328 8.996 L 7.328 8.996 Q 7.518 8.996 7.708 8.975 L 7.708 8.975 L 7.736 9.01 L 7.673 9.404 L 7.673 9.404 Q 6.997 9.376 6.553 9.376 L 6.553 9.376 L 6.553 9.376 Q 6.061 9.376 5.498 9.411 L 5.498 9.411 L 5.498 9.411 L 5.498 9.411 Z M 11.671 9.841 L 11.706 9.89 L 11.706 9.89 Q 11.579 10.446 11.509 11.129 L 11.509 11.129 L 11.46 11.185 L 11.46 11.185 Q 10.045 11.136 9.306 11.136 L 9.306 11.136 L 9.306 11.136 Q 8.75 11.136 8.222 11.206 L 8.222 11.206 L 8.264 10.819 L 8.264 10.819 Q 8.574 10.777 8.686 10.65 L 8.686 10.65 L 8.686 10.65 Q 8.799 10.524 8.799 10.221 L 8.799 10.221 L 8.806 7.384 L 8.806 7.384 Q 8.806 7.159 8.757 7.081 L 8.757 7.081 L 8.757 7.081 Q 8.707 7.004 8.56 7.004 L 8.56 7.004 L 8.327 7.018 L 8.299 6.976 L 8.355 6.617 L 8.355 6.617 Q 9.179 6.638 9.468 6.638 L 9.468 6.638 L 9.468 6.638 Q 10.284 6.638 10.773 6.62 L 10.773 6.62 L 10.773 6.62 Q 11.263 6.603 11.593 6.553 L 11.593 6.553 L 11.629 6.61 L 11.629 6.61 Q 11.572 6.87 11.527 7.208 L 11.527 7.208 L 11.527 7.208 Q 11.481 7.546 11.467 7.828 L 11.467 7.828 L 10.995 7.863 L 11.009 7.567 L 11.009 7.567 Q 11.009 7.342 10.946 7.247 L 10.946 7.247 L 10.946 7.247 Q 10.883 7.152 10.689 7.12 L 10.689 7.12 L 10.689 7.12 Q 10.495 7.088 10.017 7.088 L 10.017 7.088 L 10.017 7.088 Q 9.799 7.088 9.714 7.103 L 9.714 7.103 L 9.714 7.103 Q 9.63 7.117 9.605 7.169 L 9.605 7.169 L 9.605 7.169 Q 9.58 7.222 9.573 7.349 L 9.573 7.349 L 9.517 8.595 L 10.214 8.602 L 10.214 8.602 Q 10.369 8.602 10.604 8.581 L 10.604 8.581 L 10.604 8.581 Q 10.84 8.56 11.059 8.531 L 11.059 8.531 L 11.094 8.581 L 10.995 9.081 L 10.995 9.081 Q 10.256 9.059 10.045 9.059 L 10.045 9.059 L 10.045 9.059 Q 9.841 9.059 9.503 9.102 L 9.503 9.102 L 9.482 10.298 L 9.482 10.298 Q 9.482 10.495 9.513 10.58 L 9.513 10.58 L 9.513 10.58 Q 9.545 10.664 9.644 10.692 L 9.644 10.692 L 9.644 10.692 Q 9.742 10.721 9.989 10.721 L 9.989 10.721 L 9.989 10.721 Q 10.516 10.721 10.749 10.664 L 10.749 10.664 L 10.749 10.664 Q 10.981 10.608 11.08 10.443 L 11.08 10.443 L 11.08 10.443 Q 11.178 10.277 11.234 9.883 L 11.234 9.883 L 11.671 9.841 L 11.671 9.841 Z M 3.658 7.691 L 3.64 7.66 L 3.658 7.445 L 3.658 7.445 Q 3.882 7.427 3.954 7.397 L 3.954 7.397 L 3.954 7.397 Q 4.027 7.366 4.027 7.283 L 4.027 7.283 L 4.027 7.283 Q 4.027 7.204 3.996 7.098 L 3.996 7.098 L 3.873 6.686 L 3.873 6.686 Q 3.763 6.681 3.443 6.681 L 3.443 6.681 L 3.443 6.681 Q 3.228 6.681 2.991 6.712 L 2.991 6.712 L 2.85 7.116 L 2.85 7.116 Q 2.815 7.23 2.815 7.269 L 2.815 7.269 L 2.815 7.269 Q 2.815 7.357 2.87 7.395 L 2.87 7.395 L 2.87 7.395 Q 2.925 7.432 3.052 7.432 L 3.052 7.432 L 3.276 7.432 L 3.289 7.454 L 3.263 7.678 L 3.263 7.678 Q 3.206 7.673 3.013 7.662 L 3.013 7.662 L 3.013 7.662 Q 2.819 7.651 2.639 7.651 L 2.639 7.651 L 2.639 7.651 Q 2.468 7.651 2.326 7.656 L 2.326 7.656 L 2.326 7.656 Q 2.183 7.66 2.135 7.664 L 2.135 7.664 L 2.17 7.423 L 2.17 7.423 Q 2.284 7.405 2.354 7.337 L 2.354 7.337 L 2.354 7.337 Q 2.424 7.269 2.486 7.103 L 2.486 7.103 L 3.311 4.868 L 3.768 4.794 L 3.811 4.807 L 3.811 4.807 Q 3.842 4.917 3.948 5.307 L 3.948 5.307 L 3.948 5.307 Q 4.053 5.698 4.202 6.214 L 4.202 6.214 L 4.202 6.214 Q 4.351 6.729 4.479 7.12 L 4.479 7.12 L 4.479 7.12 Q 4.527 7.283 4.608 7.346 L 4.608 7.346 L 4.608 7.346 Q 4.689 7.41 4.865 7.427 L 4.865 7.427 L 4.878 7.449 L 4.847 7.664 L 4.847 7.664 Q 4.795 7.66 4.648 7.656 L 4.648 7.656 L 4.648 7.656 Q 4.501 7.651 4.351 7.651 L 4.351 7.651 L 4.351 7.651 Q 4.128 7.651 3.921 7.667 L 3.921 7.667 L 3.921 7.667 Q 3.715 7.682 3.658 7.691 L 3.658 7.691 L 3.658 7.691 L 3.658 7.691 L 3.658 7.691 L 3.658 7.691 Z M 13.895 9.425 L 13.867 9.376 L 13.902 9.038 L 13.902 9.038 Q 14.149 9.024 14.261 8.975 L 14.261 8.975 L 14.261 8.975 Q 14.374 8.926 14.374 8.813 L 14.374 8.813 L 14.374 8.813 Q 14.374 8.707 14.247 8.531 L 14.247 8.531 L 13.55 7.483 L 12.98 8.257 L 12.98 8.257 Q 12.797 8.51 12.734 8.619 L 12.734 8.619 L 12.734 8.619 Q 12.67 8.729 12.67 8.813 L 12.67 8.813 L 12.67 8.813 Q 12.67 8.912 12.762 8.961 L 12.762 8.961 L 12.762 8.961 Q 12.853 9.01 13.051 9.024 L 13.051 9.024 L 13.072 9.066 L 13.029 9.418 L 13.029 9.418 Q 12.931 9.411 12.642 9.394 L 12.642 9.394 L 12.642 9.394 Q 12.354 9.376 12.192 9.376 L 12.192 9.376 L 12.192 9.376 Q 11.96 9.376 11.741 9.387 L 11.741 9.387 L 11.741 9.387 Q 11.523 9.397 11.446 9.404 L 11.446 9.404 L 11.418 9.348 L 11.467 9.003 L 11.467 9.003 Q 11.72 8.919 11.974 8.683 L 11.974 8.683 L 11.974 8.683 Q 12.227 8.447 12.551 8.039 L 12.551 8.039 L 13.297 7.095 L 12.445 5.828 L 12.445 5.828 Q 12.262 5.561 12.04 5.424 L 12.04 5.424 L 12.04 5.424 Q 11.819 5.286 11.502 5.237 L 11.502 5.237 L 11.488 5.209 L 11.53 4.857 L 11.53 4.857 Q 11.636 4.864 11.945 4.871 L 11.945 4.871 L 11.945 4.871 Q 12.255 4.878 12.593 4.878 L 12.593 4.878 L 12.593 4.878 Q 12.91 4.878 13.212 4.853 L 13.212 4.853 L 13.212 4.853 Q 13.515 4.829 13.6 4.822 L 13.6 4.822 L 13.621 4.878 L 13.6 5.195 L 13.6 5.195 Q 13.339 5.209 13.223 5.265 L 13.223 5.265 L 13.223 5.265 Q 13.107 5.322 13.107 5.427 L 13.107 5.427 L 13.107 5.427 Q 13.107 5.512 13.279 5.797 L 13.279 5.797 L 13.279 5.797 Q 13.452 6.082 13.825 6.652 L 13.825 6.652 L 14.071 6.314 L 14.071 6.314 Q 14.346 5.948 14.497 5.719 L 14.497 5.719 L 14.497 5.719 Q 14.648 5.491 14.648 5.399 L 14.648 5.399 L 14.648 5.399 Q 14.648 5.308 14.56 5.262 L 14.56 5.262 L 14.56 5.262 Q 14.473 5.216 14.268 5.202 L 14.268 5.202 L 14.254 5.174 L 14.297 4.836 L 14.494 4.85 L 14.494 4.85 Q 14.599 4.857 14.807 4.868 L 14.807 4.868 L 14.807 4.868 Q 15.015 4.878 15.134 4.878 L 15.134 4.878 L 15.134 4.878 Q 15.324 4.878 15.56 4.868 L 15.56 4.868 L 15.56 4.868 Q 15.796 4.857 15.866 4.85 L 15.866 4.85 L 15.894 4.899 L 15.852 5.237 L 15.852 5.237 Q 15.542 5.315 15.366 5.462 L 15.366 5.462 L 15.366 5.462 Q 15.19 5.61 14.909 5.976 L 14.909 5.976 L 14.092 7.039 L 15.036 8.405 L 15.036 8.405 Q 15.233 8.693 15.451 8.831 L 15.451 8.831 L 15.451 8.831 Q 15.669 8.968 15.986 8.996 L 15.986 8.996 L 16 9.024 L 15.951 9.397 L 15.951 9.397 Q 15.852 9.39 15.592 9.383 L 15.592 9.383 L 15.592 9.383 Q 15.331 9.376 15.057 9.376 L 15.057 9.376 L 15.057 9.376 Q 14.817 9.376 14.42 9.397 L 14.42 9.397 L 14.42 9.397 Q 14.022 9.418 13.895 9.425 L 13.895 9.425 Z"/>
</svg>
